packages/bezier-icons/icons/funnel-remove.svg

<svg width="24" height="24" viewBox="0 0 24 24" fill="none" xmlns="http://www.w3.org/2000/svg">
<path fill-rule="evenodd" clip-rule="evenodd" d="M15 12.8284V11H14H13.4423H10.5577C10.3697 10.6342 10.1247 10.2962 9.82843 10L5 5.17157V4H13V2H4C3.44772 2 3 2.44772 3 3V5.17157C3 5.70201 3.21071 6.21071 3.58579 6.58579L8.41421 11.4142C8.78929 11.7893 9 12.298 9 12.8284V21.382C9 21.5372 9.03615 21.6903 9.10557 21.8292C9.35256 22.3232 9.95324 22.5234 10.4472 22.2764L14.4472 20.2764C14.786 20.107 15 19.7607 15 19.382V13V12.8284ZM13 13V18.763L11 19.763V13H13ZM14.4628 3.8788L16.5841 6.00012L14.4628 8.12144L15.877 9.53566L17.9983 7.41434L20.1197 9.53566L21.5339 8.12144L19.4126 6.00012L21.5339 3.8788L20.1197 2.46459L17.9983 4.58591L15.877 2.46459L14.4628 3.8788Z" fill="#313234"/>
</svg>

<svg xmlns="http://www.w3.org/2000/svg" width="24" height="24" fill="none" viewBox="0 0 24 24"><path fill="#313234" fill-rule="evenodd" d="M15 12.828V11h-4.442a4 4 0 0 0-.73-1L5 5.172V4h8V2H4a1 1 0 0 0-1 1v2.172a2 2 0 0 0 .586 1.414l4.828 4.828A2 2 0 0 1 9 12.828v8.554a1 1 0 0 0 1.447.894l4-2a1 1 0 0 0 .553-.894v-6.554M13 13v5.763l-2 1V13zm1.463-9.121L16.584 6l-2.121 2.121 1.414 1.415 2.121-2.122 2.122 2.122 1.414-1.415-2.121-2.12 2.12-2.122-1.413-1.414-2.122 2.12-2.121-2.12z" clip-rule="evenodd"/></svg>
